X:1
T:Gairdener Child
M:4/4
L:1/4
K:C
 z2 z G| c c d3/2 e/2| G E D C| c/2c/2 e d c| A3 c| E3/2 D/2 D E| G E D E/2E/2|\
 G A A B| A3 c| E3/2 D/2 D E| G E D E/2E/2| G A A B| A3 z|
